X: 35523
T: Ruined Old Cottage In The Glen, The
R: reel
M: 4/4
K: Dmajor
|:A|B2 AF DEFA|BdAd Bdef|dBAF DEFA|BdAD FEE:|A|
Beed BddA|(B/c/d) ef gfed|Beed Bdef|dBAD FEEA|
Beed BddA|Beef gfga|bfaf gfef|dBAD FEE||

